X: 7
T: Clumsy Lover, The
C: Neil Dickie
Z: JACKB
S: https://thesession.org/tunes/16#setting50467
R: reel
M: 4/4
L: 1/8
K: Dmaj
|:AG|FAAF A2 BA |GB B2 BcBA|DAAD A2 GF|GA A2 GB B2|
FAAF BAGF|GB B2 BcBA|DAAF A2 BA|FAEA D2:|
|:FG|AddA d3A|B2 B3A GF|DAAD A2 GF|GA A2 GB B2|
FD D2 AD D2|BD D2 AD D2|FAAF A2 BA|FAEA D2:|
|:FG|AD D2 AD D2|BD D2 BD D2|AD D2 AD D2|FDAD BDAD|
AD D2 AD D2|BD D2 BD D2|FAAF A2 BA|FAEA D2:|
|:FG|AddA d2 Ad|BddB d2 Bd|AddA d2 Ad|edfd gdfd|
AddA d2 Ad|BddB d2 Bd|DAAF A2 BA|FAEA D2:|

%-------------------- TUNE SEPARATOR --------------------%

